X:29
T: Káposzta, káposzta
O: Oroszlány (Komárom), Jankó Miklós (44), 1952.10
Q: "Tempo guisto" 1/4=96
M:4/4
L:1/4
K:Eb
cdc<A | G2 F2 | G G C F | E D C z | 
GG e<e | d2 c2 | dcB F | B<A G z |
GG e<e | d2 c2 | dcB/B/F/F/ | B A G z |
cdcA | G2 F2 | G G C F | E<D C z | 
 
